icons/font.svg

<?xml version="1.0" encoding="UTF-8"?>
<svg   viewBox="0 0 24 24" version="1.1" xmlns="http://www.w3.org/2000/svg" xmlns:xlink="http://www.w3.org/1999/xlink">
    <g id="🔍-System-Icons" stroke="none" stroke-width="1" fill="none" fill-rule="evenodd">
        <g id="ic_fluent_text_font_24_regular" fill="#333" fill-rule="nonzero">
            <path d="M14.5033,5.99999992 C14.8108,5.99999992 15.0871,6.18799 15.2003,6.47391 L20.7552,20.5042 L21.2492,20.5042 C21.6634,20.5042 21.9992,20.84 21.9992,21.2542 C21.9992,21.6684 21.6634,22.0043 21.2492,22.0043 L18.75,22.0041 C18.3358,22.0041 18,21.6683 18,21.2541 C18,20.8399 18.3358,20.5041 18.75,20.5041 L19.1419,20.5041 L17.9525,17.4999999 L11.0426,17.4999999 L9.85007,20.5042 L10.2492,20.5042 C10.6634,20.5042 10.9992,20.84 10.9992,21.2542 C10.9992,21.6684 10.6634,22.0043 10.2492,22.0043 L7.74998,22.0041 C7.33577,22.0041 7,21.6683 7,21.2541 C7,20.8399 7.3358,20.5041 7.75002,20.5041 L8.23622,20.5041 L13.8059,6.47329 C13.9193,6.18746 14.1958,5.99999992 14.5033,5.99999992 Z M14.5021,8.78508 L11.638,16 L17.3586,16 L14.5021,8.78508 Z M7.00005,2 C7.31395,2 7.59464,2.19551 7.70349,2.48994 L10.8898,11.109 L10.0618,13.195 L9.43546,11.5008 L4.5638,11.5008 L3.45103,14.5101 C3.30737,14.8986 2.87596,15.0971 2.48746,14.9534 C2.09896,14.8098 1.90047,14.3784 2.04413,13.9899 L6.29657,2.48988 C6.40544,2.19546 6.68615,2 7.00005,2 Z M6.99993,4.91271 L5.11847,10.0008 L8.88093,10.0008 L6.99993,4.91271 Z" id="🎨-Color"></path>
        </g>
    </g>
</svg>

<svg width="24" height="24" fill="none" viewBox="0 0 24 24" xmlns="http://www.w3.org/2000/svg"><path d="M7 2a.75.75 0 0 1 .704.49l2.951 7.985.013.032.222.602-.828 2.086-.626-1.694H4.564l-1.113 3.01a.75.75 0 1 1-1.407-.521l1.288-3.483a.766.766 0 0 1 .012-.033L6.297 2.49A.75.75 0 0 1 7 2ZM5.12 10H8.88l-1.88-5.087L5.118 10ZM13.806 6.473a.75.75 0 0 1 1.395 0l5.554 14.031h.494a.75.75 0 1 1 0 1.5H18.75a.75.75 0 0 1 0-1.5h.392l-1.19-3.004h-6.91L9.85 20.504h.4a.75.75 0 1 1 0 1.5H7.75a.75.75 0 1 1 0-1.5h.485l5.57-14.03ZM17.36 16l-2.857-7.215L11.638 16h5.72Z" fill="#333"/></svg>
